icons/new/svg/selection.svg

<?xml version="1.0"?>
<!-- Converted with SVG Converter - Version 0.9.6 (Compiled Fri Dec  1 22:15:06 2017) - Copyright (C) 2011 Nokia -->
<svg xmlns="http://www.w3.org/2000/svg" viewBox="0 0 24 24" width="100%" xml:space="preserve" version="1.1" xmlns:xlink="http://www.w3.org/1999/xlink" height="100%" baseProfile="tiny">
 <g transform="matrix(1,0,0,1,-298,-121)">
  <g id="selection" transform="matrix(1,0,0,1,60,68)">
   <rect style="fill:none;" width="24" y="53" x="238" height="24"/>
   <g transform="matrix(1,0,0,1,-23,-25)">
    <rect style="fill:url(#_Linear1);" width="3" y="80" x="268" height="2"/>
   </g>
   <g transform="matrix(1,0,0,1,-19,-25)">
    <rect style="fill:url(#_Linear2);" width="3" y="80" x="268" height="2"/>
   </g>
   <g transform="matrix(1,0,0,1,-15,-25)">
    <rect style="fill:url(#_Linear3);" width="3" y="80" x="268" height="2"/>
   </g>
   <g transform="matrix(1,0,0,1,-23,-7)">
    <rect style="fill:url(#_Linear4);" width="3" y="80" x="268" height="2"/>
   </g>
   <g transform="matrix(1,0,0,1,-19,-7)">
    <rect style="fill:url(#_Linear5);" width="3" y="80" x="268" height="2"/>
   </g>
   <g transform="matrix(1,0,0,1,-15,-7)">
    <rect style="fill:url(#_Linear6);" width="3" y="80" x="268" height="2"/>
   </g>
   <g transform="matrix(1,0,0,1,-60.1988,-68)">
    <path style="fill:url(#_Linear7);" d="M300.199,137L302.199,137L302.199,141L304.199,141L304.199,143L300.199,143L300.199,141L300.199,137Z"/>
   </g>
   <g transform="matrix(6.12323e-17,-1,1,6.12323e-17,160,332)">
    <rect style="fill:url(#_Linear8);" width="3" y="80" x="268" height="2"/>
   </g>
   <g transform="matrix(6.12323e-17,-1,1,6.12323e-17,160,336)">
    <rect style="fill:url(#_Linear9);" width="3" y="80" x="268" height="2"/>
   </g>
   <g transform="matrix(1,0,0,1,-60.1988,-68)">
    <path style="fill:url(#_Linear10);" d="M320.199,141L320.199,143L317.199,143L317.199,141L318.199,141L318.199,137L320.199,137L320.199,141Z"/>
   </g>
   <g transform="matrix(6.12323e-17,-1,1,6.12323e-17,178,336)">
    <rect style="fill:url(#_Linear11);" width="3" y="80" x="268" height="2"/>
   </g>
   <g transform="matrix(6.12323e-17,-1,1,6.12323e-17,178,332)">
    <rect style="fill:url(#_Linear12);" width="3" y="80" x="268" height="2"/>
   </g>
   <g transform="matrix(1,0,0,1,-60.1988,-68)">
    <path style="fill:url(#_Linear13);" d="M317.199,123L320.199,123L320.199,128L318.199,128L318.199,125L317.199,125L317.199,123Z"/>
   </g>
   <g transform="matrix(1,0,0,1,-60.1988,-68)">
    <path style="fill:url(#_Linear14);" d="M302.199,125L302.199,128L300.199,128L300.199,125L298.199,125L298.199,123L300.199,123L300.199,121L302.199,121L302.199,123L304.199,123L304.199,125L302.199,125Z"/>
   </g>
  </g>
 </g>
 <defs>
  <linearGradient x1="0" id="_Linear1" x2="1" gradientUnits="userSpaceOnUse" y2="0" y1="0" gradientTransform="matrix(-6,-28,28,-6,273,107)">
   <stop style="stop-color:rgb(0,159,227);stop-opacity:1" offset="0.0"/>
   <stop style="stop-color:rgb(0,96,143);stop-opacity:1" offset="1.0"/>
  </linearGradient>
  <linearGradient x1="0" id="_Linear2" x2="1" gradientUnits="userSpaceOnUse" y2="0" y1="0" gradientTransform="matrix(-6,-28,28,-6,269,107)">
   <stop style="stop-color:rgb(0,159,227);stop-opacity:1" offset="0.0"/>
   <stop style="stop-color:rgb(0,96,143);stop-opacity:1" offset="1.0"/>
  </linearGradient>
  <linearGradient x1="0" id="_Linear3" x2="1" gradientUnits="userSpaceOnUse" y2="0" y1="0" gradientTransform="matrix(-6,-28,28,-6,265,107)">
   <stop style="stop-color:rgb(0,159,227);stop-opacity:1" offset="0.0"/>
   <stop style="stop-color:rgb(0,96,143);stop-opacity:1" offset="1.0"/>
  </linearGradient>
  <linearGradient x1="0" id="_Linear4" x2="1" gradientUnits="userSpaceOnUse" y2="0" y1="0" gradientTransform="matrix(-6,-28,28,-6,273,89)">
   <stop style="stop-color:rgb(0,159,227);stop-opacity:1" offset="0.0"/>
   <stop style="stop-color:rgb(0,96,143);stop-opacity:1" offset="1.0"/>
  </linearGradient>
  <linearGradient x1="0" id="_Linear5" x2="1" gradientUnits="userSpaceOnUse" y2="0" y1="0" gradientTransform="matrix(-6,-28,28,-6,269,89)">
   <stop style="stop-color:rgb(0,159,227);stop-opacity:1" offset="0.0"/>
   <stop style="stop-color:rgb(0,96,143);stop-opacity:1" offset="1.0"/>
  </linearGradient>
  <linearGradient x1="0" id="_Linear6" x2="1" gradientUnits="userSpaceOnUse" y2="0" y1="0" gradientTransform="matrix(-6,-28,28,-6,265,89)">
   <stop style="stop-color:rgb(0,159,227);stop-opacity:1" offset="0.0"/>
   <stop style="stop-color:rgb(0,96,143);stop-opacity:1" offset="1.0"/>
  </linearGradient>
  <linearGradient x1="0" id="_Linear7" x2="1" gradientUnits="userSpaceOnUse" y2="0" y1="0" gradientTransform="matrix(-6,-28,28,-6,310.199,150)">
   <stop style="stop-color:rgb(0,159,227);stop-opacity:1" offset="0.0"/>
   <stop style="stop-color:rgb(0,96,143);stop-opacity:1" offset="1.0"/>
  </linearGradient>
  <linearGradient x1="0" id="_Linear8" x2="1" gradientUnits="userSpaceOnUse" y2="0" y1="0" gradientTransform="matrix(28,-6,6,28,250,90)">
   <stop style="stop-color:rgb(0,159,227);stop-opacity:1" offset="0.0"/>
   <stop style="stop-color:rgb(0,96,143);stop-opacity:1" offset="1.0"/>
  </linearGradient>
  <linearGradient x1="0" id="_Linear9" x2="1" gradientUnits="userSpaceOnUse" y2="0" y1="0" gradientTransform="matrix(28,-6,6,28,254,90)">
   <stop style="stop-color:rgb(0,159,227);stop-opacity:1" offset="0.0"/>
   <stop style="stop-color:rgb(0,96,143);stop-opacity:1" offset="1.0"/>
  </linearGradient>
  <linearGradient x1="0" id="_Linear10" x2="1" gradientUnits="userSpaceOnUse" y2="0" y1="0" gradientTransform="matrix(-6,-28,28,-6,310.199,150)">
   <stop style="stop-color:rgb(0,159,227);stop-opacity:1" offset="0.0"/>
   <stop style="stop-color:rgb(0,96,143);stop-opacity:1" offset="1.0"/>
  </linearGradient>
  <linearGradient x1="0" id="_Linear11" x2="1" gradientUnits="userSpaceOnUse" y2="0" y1="0" gradientTransform="matrix(28,-6,6,28,254,72)">
   <stop style="stop-color:rgb(0,159,227);stop-opacity:1" offset="0.0"/>
   <stop style="stop-color:rgb(0,96,143);stop-opacity:1" offset="1.0"/>
  </linearGradient>
  <linearGradient x1="0" id="_Linear12" x2="1" gradientUnits="userSpaceOnUse" y2="0" y1="0" gradientTransform="matrix(28,-6,6,28,250,72)">
   <stop style="stop-color:rgb(0,159,227);stop-opacity:1" offset="0.0"/>
   <stop style="stop-color:rgb(0,96,143);stop-opacity:1" offset="1.0"/>
  </linearGradient>
  <linearGradient x1="0" id="_Linear13" x2="1" gradientUnits="userSpaceOnUse" y2="0" y1="0" gradientTransform="matrix(-6,-28,28,-6,310.199,150)">
   <stop style="stop-color:rgb(0,159,227);stop-opacity:1" offset="0.0"/>
   <stop style="stop-color:rgb(0,96,143);stop-opacity:1" offset="1.0"/>
  </linearGradient>
  <linearGradient x1="0" id="_Linear14" x2="1" gradientUnits="userSpaceOnUse" y2="0" y1="0" gradientTransform="matrix(-6,-28,28,-6,310.199,150)">
   <stop style="stop-color:rgb(0,159,227);stop-opacity:1" offset="0.0"/>
   <stop style="stop-color:rgb(0,96,143);stop-opacity:1" offset="1.0"/>
  </linearGradient>
 </defs>
</svg>

<svg xmlns="http://www.w3.org/2000/svg" viewBox="0 0 24 24" baseProfile="tiny"><path fill="none" d="M0 0h24v24H0z"/><path fill="url(#_Linear1)" d="M268 80h3v2h-3z" transform="translate(-261 -78)"/><path fill="url(#_Linear2)" d="M268 80h3v2h-3z" transform="translate(-257 -78)"/><path fill="url(#_Linear3)" d="M268 80h3v2h-3z" transform="translate(-253 -78)"/><path fill="url(#_Linear4)" d="M268 80h3v2h-3z" transform="translate(-261 -60)"/><path fill="url(#_Linear5)" d="M268 80h3v2h-3z" transform="translate(-257 -60)"/><path fill="url(#_Linear6)" d="M268 80h3v2h-3z" transform="translate(-253 -60)"/><path d="M300.199 137h2v4h2v2h-4v-6z" fill="url(#_Linear7)" transform="translate(-298.199 -121)"/><path fill="url(#_Linear8)" d="M268 80h3v2h-3z" transform="rotate(-90 100.5 178.5)"/><path fill="url(#_Linear9)" d="M268 80h3v2h-3z" transform="rotate(-90 102.5 180.5)"/><path d="M320.199 141v2h-3v-2h1v-4h2v4z" fill="url(#_Linear10)" transform="translate(-298.199 -121)"/><path fill="url(#_Linear11)" d="M268 80h3v2h-3z" transform="rotate(-90 111.5 171.5)"/><path fill="url(#_Linear12)" d="M268 80h3v2h-3z" transform="rotate(-90 109.5 169.5)"/><path d="M317.199 123h3v5h-2v-3h-1v-2z" fill="url(#_Linear13)" transform="translate(-298.199 -121)"/><path d="M302.199 125v3h-2v-3h-2v-2h2v-2h2v2h2v2h-2z" fill="url(#_Linear14)" transform="translate(-298.199 -121)"/><defs><linearGradient id="_Linear1" x2="1" gradientUnits="userSpaceOnUse" gradientTransform="matrix(-6 -28 28 -6 273 107)"><stop offset="0" stop-color="#009fe3"/><stop offset="1" stop-color="#00608f"/></linearGradient><linearGradient id="_Linear2" x2="1" gradientUnits="userSpaceOnUse" gradientTransform="matrix(-6 -28 28 -6 269 107)"><stop offset="0" stop-color="#009fe3"/><stop offset="1" stop-color="#00608f"/></linearGradient><linearGradient id="_Linear3" x2="1" gradientUnits="userSpaceOnUse" gradientTransform="matrix(-6 -28 28 -6 265 107)"><stop offset="0" stop-color="#009fe3"/><stop offset="1" stop-color="#00608f"/></linearGradient><linearGradient id="_Linear4" x2="1" gradientUnits="userSpaceOnUse" gradientTransform="matrix(-6 -28 28 -6 273 89)"><stop offset="0" stop-color="#009fe3"/><stop offset="1" stop-color="#00608f"/></linearGradient><linearGradient id="_Linear5" x2="1" gradientUnits="userSpaceOnUse" gradientTransform="matrix(-6 -28 28 -6 269 89)"><stop offset="0" stop-color="#009fe3"/><stop offset="1" stop-color="#00608f"/></linearGradient><linearGradient id="_Linear6" x2="1" gradientUnits="userSpaceOnUse" gradientTransform="matrix(-6 -28 28 -6 265 89)"><stop offset="0" stop-color="#009fe3"/><stop offset="1" stop-color="#00608f"/></linearGradient><linearGradient id="_Linear7" x2="1" gradientUnits="userSpaceOnUse" gradientTransform="matrix(-6 -28 28 -6 310.199 150)"><stop offset="0" stop-color="#009fe3"/><stop offset="1" stop-color="#00608f"/></linearGradient><linearGradient id="_Linear8" x2="1" gradientUnits="userSpaceOnUse" gradientTransform="matrix(28 -6 6 28 250 90)"><stop offset="0" stop-color="#009fe3"/><stop offset="1" stop-color="#00608f"/></linearGradient><linearGradient id="_Linear9" x2="1" gradientUnits="userSpaceOnUse" gradientTransform="matrix(28 -6 6 28 254 90)"><stop offset="0" stop-color="#009fe3"/><stop offset="1" stop-color="#00608f"/></linearGradient><linearGradient id="_Linear10" x2="1" gradientUnits="userSpaceOnUse" gradientTransform="matrix(-6 -28 28 -6 310.199 150)"><stop offset="0" stop-color="#009fe3"/><stop offset="1" stop-color="#00608f"/></linearGradient><linearGradient id="_Linear11" x2="1" gradientUnits="userSpaceOnUse" gradientTransform="matrix(28 -6 6 28 254 72)"><stop offset="0" stop-color="#009fe3"/><stop offset="1" stop-color="#00608f"/></linearGradient><linearGradient id="_Linear12" x2="1" gradientUnits="userSpaceOnUse" gradientTransform="matrix(28 -6 6 28 250 72)"><stop offset="0" stop-color="#009fe3"/><stop offset="1" stop-color="#00608f"/></linearGradient><linearGradient id="_Linear13" x2="1" gradientUnits="userSpaceOnUse" gradientTransform="matrix(-6 -28 28 -6 310.199 150)"><stop offset="0" stop-color="#009fe3"/><stop offset="1" stop-color="#00608f"/></linearGradient><linearGradient id="_Linear14" x2="1" gradientUnits="userSpaceOnUse" gradientTransform="matrix(-6 -28 28 -6 310.199 150)"><stop offset="0" stop-color="#009fe3"/><stop offset="1" stop-color="#00608f"/></linearGradient></defs></svg>
